X:0329
M:C
L:1/16
Q:1/4=90
K:D
d3e  d2B2 A3F   A2d2  |f2g2f2e2 Te4  d4  |d'2c'2b2a2 g2f2e2d2    | \c2B2A2G2 F2E2  D4:|
f3g  a2d2 f2e2  g2f2  |f2g2a2d2  f2e2g2f2|b2c'2d'2d2 bc'bc' d'2d2|f4Te4            d8:|
d4   f2d2 g2e2 (cde).c|d4   e2f2 a2g2f2e2|d4f2d2     g2e2   cdec |e2f2e2f2   f4    e4 |
d4   f2d2 g2e2  cdec  |d4   e2f2 a2g2f2e2|d4f2d2     g2e2   cdec |A2d2f2e2   e4    d4:|

